icons/pie.svg

<svg xmlns="http://www.w3.org/2000/svg" viewBox="0 0 24 24" fill="currentColor">
  <path d="M3.75 12c0-4.55635 3.69365-8.25 8.25-8.25 4.3035 0 7.8374 3.29513 8.2164 7.5H14c-1.5142 0-2.75 1.2358-2.75 2.75v6.2164c-4.20487-.379-7.5-3.9129-7.5-8.2164Zm9 8.2164c3.9579-.3567 7.1097-3.5085 7.4664-7.4664H14c-.6858 0-1.25.5642-1.25 1.25v6.2164ZM12 2.25c-5.38478 0-9.75 4.36522-9.75 9.75 0 5.3848 4.36522 9.75 9.75 9.75 5.3848 0 9.75-4.3652 9.75-9.75 0-5.38478-4.3652-9.75-9.75-9.75Z"/>
</svg>

<svg width="24" height="24" viewBox="0 0 24 24" fill="none" xmlns="http://www.w3.org/2000/svg">
<path fill-rule="evenodd" clip-rule="evenodd" d="M3.75 12C3.75 7.44365 7.44365 3.75 12 3.75C16.3035 3.75 19.8374 7.04513 20.2164 11.25H14C12.4858 11.25 11.25 12.4858 11.25 14V20.2164C7.04513 19.8374 3.75 16.3035 3.75 12ZM12.75 20.2164C16.7079 19.8597 19.8597 16.7079 20.2164 12.75H14C13.3142 12.75 12.75 13.3142 12.75 14V20.2164ZM12 2.25C6.61522 2.25 2.25 6.61522 2.25 12C2.25 17.3848 6.61522 21.75 12 21.75C17.3848 21.75 21.75 17.3848 21.75 12C21.75 6.61522 17.3848 2.25 12 2.25Z" fill="black"/>
</svg>
